X:0828
T:The Sailor's Alegory.
M:C|
L:1/8
Q:1/4=100
I: ||
Z:Jack Campin * www.campin.me.uk * 2009
K:D
AB/c/|c2c2 dcBA| d2         d2 F2F2|G2FG  A2   A2 |    D4 A2Bc|d2d2 edcB|cde2 c2c2|d2cd e2E2|A4 A2
dc   |B2A2 G2F2|(G3/A//B//) A2 B2c2|d2e2 (fd) (gf)|{f}He4 gefd|c2BA gefd|c4   A2Bc|d2f2 e2a2|d4 z2|]
<end>
<start>
